X:141
M:C
L:1/8
K:E_
e|B<G G>F E/F/G/A/ B>G|B<G G>F G<B c2|B<G G>F E/F/G/A/ B>F|
e>g f<d g<c B<G|B<G G>F G>=B c2|e>g f<d g<c B>G|e<gf<d b<d c2|
g<bf<g e>cB>A|G>F E<g f>d c2||

